X: 1
T: Dr. James Hamilton's Reel
C: Robert Macintosh
R: Jig
K: A
M: 6/8
L: 1/16
E2 |\
A6 E4c2 | B2G2E2 E2F2G2 | A4A2 B2A2B2 | c2B2c2 A2B2c2 |\
d2c2d2 f2d2A2 | c2B2c2 e2c2A2 | F2d2c2 B2A2G2 | A6 A4 :|
g2 |\
a6     e2c2A2 | B2G2E2 B2c2d2 | c4a2 a2g2f2 | e2b2g2 a2e2c2 |\
d2f2d2 c2e2c2 | B2c2A2 G2F2E2 | F2d2c2 B2A2G2 | A6 A4 ||
g2 |\
a2g2a2 e2c2A2 | B2G2E2 B2c2d2 | c4a2 a2g2f2 | e2b2g2 a2e2c2 |\
d2b2d2 c2a2c2 | B2c2A2 G2F2E2 | F2d2c2 B2A2G2 | A6 A4 |] 
